X:1
T:Title
%%score { ( 1 3 ) | ( 2 4 ) }
L:1/8
M:4/4
K:Eb
V:1 treble nm="Grand Piano"
V:3 treble 
V:2 bass 
V:4 bass 
V:1
 z4 z2[Q:1/4=110] E>F | G2 G2 G2 G>[B,FA] | [EGB]2 [DAB]2 [EGB]2 z2 | z2 D2 D2 c2 | %4
[M:3/4] B2 z2 E2 |[M:1/4] E>F |[M:4/4] G2 G2 G2 G>[FA] | [GB]2 [AB]2 [GB]2 [_Gc]2 | d d3 d2 c2 | %9
[M:3/4] [DB]6 |[M:1/4] B2 |[M:4/4] [Ge]2 [Ge]2 [Ge]>[Bd] [Ac]>[GB] | z2 [GB]4 z2 | %13
 [DFAB]2 [DFAB]2 [FAB]2 [DFAB]2 | [EG]2 [EG]2 G2 B2 | [Ge]2 [Ge]2 [Ge]>[Bd] [Ac]>[GB] | %16
 z2 [GB]4 z2 | B B3 B2 =A2 | B2 B2 B2 F>G | [FA]>G [FA]>B [Bd]2 [Ac]2 | [Ac]2 [GB]4 [DF]>G | %21
 [FA]>G [FA]>B [Bd]2 [Ac]2 | [GB]6 [EGB]2 | .[Ge]2 .[Ge]2 z2 [Ge]2 | e2 e2 z2 f2 | e4 [Ad]4 | %26
[M:3/4] e6 |] %27
V:2
 z4 z2 [E,G,]>[E,A,E] | [E,B,E]2 [E,B,E]2 [E,B,E]2 [E,B,E]>E, | E,2 F,2[K:treble] G,2 c2 | %3
 B2[K:bass] [B,,B,]2 [B,,B,]2 z2 |[M:3/4] z2 [E,B,E]2 [E,B,]2 |[M:1/4] [E,G,]>[E,A,E] | %6
[M:4/4] [E,B,E]2 [E,B,E]2 [E,B,E]2 [E,B,E]>[E,B,] | [E,E]2 [F,D]2 [G,E]2 [E,E]2 | %8
 [F,B,F] [F,B,F]3 [F,=A,F]2 [F,A,E]2 |[M:3/4] [B,,B,]2 B,,2 B,,2 |[M:1/4] A2 | %11
[M:4/4] [E,B,]2 [B,,B,]2 [E,B,]2 [B,,B,]2 | [E,B,]2 [B,,B,]2 E,2 G,2 | B,2 z2[K:treble] D2 B,2 | %14
 C2 z2 E2 A2 | [E,B,]2 [B,,B,]2 [E,B,]2 [B,,B,]2 | [E,B,]2 [B,,B,]2 E,2 z2 | %17
 [DF] [DF]3 [DF]2 [CF]2 | [DF]2 [DF]2 [DF]2 D>E | z z/ =E/ z z/ G/ B,,2 B,2 | z4 z2 B,2 | %21
 z z/[K:treble] =E/ z z/ G/[K:bass] B,,2 B,2 | E,2 B,2 E,2 E,2 | .[E,B,]2 .[E,B,]2 z2 [E,_D]2 | %24
 [A,CA]2 [A,CA]2 z2 [A,CA]2 | [B,E]2 z2[K:bass] z4 |[M:3/4] z2 C2 B,2 |] %27
V:3
 x8 | x8 | x8 | z2 F4 z2 |[M:3/4] z2 G4 |[M:1/4] x2 |[M:4/4] x8 | x8 | x8 |[M:3/4] z2 B,2 B,2 | %10
[M:1/4] x2 |[M:4/4] x8 | [Ac]2 z2 B,2 z2 | x8 | x8 | x8 | [Ac]2 z2 B,2 C2 | x8 | x8 | x8 | x8 | %21
 x8 | x8 | x8 | x8 | z2 E2 F2 F2 |[M:3/4] [EG]2 A2 G2 |] %27
V:4
 x8 | x8 | x4[K:treble] x4 | x2[K:bass] x6 |[M:3/4] x6 |[M:1/4] x2 |[M:4/4] x8 | x8 | x8 | %9
[M:3/4] x6 |[M:1/4] x2 |[M:4/4] x8 | x8 | z2 F,4[K:treble] z2 | z2 B,4 z2 | x8 | x8 | x8 | B,6 z2 | %19
 D,2 B,2 z4 | E,2 B,2 B,,2 z z/ E/ | D,2[K:treble] B,2[K:bass] z4 | x8 | x8 | x8 | %25
 G2- [B,G]2[K:bass] B,2 B,2 |[M:3/4] E,6 |] %27

